app/javascript/pages/sgf/section-about/img/people.svg

<svg height="106" viewBox="0 0 106 106" width="106" xmlns="http://www.w3.org/2000/svg"><g fill="none" fill-rule="evenodd" stroke-width="2" transform="translate(1 1)"><g stroke="#444"><path d="m16.5454545 26c-5.2212727 0-9.45454541-4.2332727-9.45454541-9.4545455 0-5.2212727 4.23327271-9.45454541 9.45454541-9.45454541 5.2212728 0 9.4545455 4.23327271 9.4545455 9.45454541 0 5.2212728-4.2332727 9.4545455-9.4545455 9.4545455z" stroke-linecap="square"/><path d="m23.6363636 96.9090909h-14.18181815l-2.36363636-26-7.09090909-2.3636364v-21.2727272c0-5.2212728 4.23327273-9.4545455 9.45454545-9.4545455h14.18181815c3.4367273 0 6.4456364 1.8365455 8.1001819 4.5783637"/><path d="m87.4545455 26c5.2212727 0 9.4545454-4.2332727 9.4545454-9.4545455 0-5.2212727-4.2332727-9.45454541-9.4545454-9.45454541-5.2212728 0-9.4545455 4.23327271-9.4545455 9.45454541 0 5.2212728 4.2332727 9.4545455 9.4545455 9.4545455z" stroke-linecap="square"/><path d="m80.3636364 96.9090909h14.1818181l2.3636364-26 7.0909091-2.3636364v-21.2727272c0-5.2212728-4.2332727-9.4545455-9.4545455-9.4545455h-14.1818181c-3.4367273 0-6.4456364 1.8365455-8.1001819 4.5783637"/></g><path d="m52 28.3636364c-7.8330909 0-14.1818182-6.3487273-14.1818182-14.1818182 0-7.83309093 6.3487273-14.1818182 14.1818182-14.1818182s14.1818182 6.34872727 14.1818182 14.1818182c0 7.8330909-6.3487273 14.1818182-14.1818182 14.1818182zm11.8181818 75.6363636h-23.6363636l-2.3636364-28.3636364-9.4545454-2.3636363v-23.6363637c0-5.2212727 4.2332727-9.4545454 9.4545454-9.4545454h28.3636364c5.2212727 0 9.4545454 4.2332727 9.4545454 9.4545454v23.6363637l-9.4545454 2.3636363z" stroke="#97bd3d" stroke-linecap="square"/></g></svg>

<svg xmlns="http://www.w3.org/2000/svg" width="106" height="106" viewBox="0 0 106 106">
  <g fill="none" fill-rule="evenodd" stroke-width="2" transform="translate(1 1)">
    <path stroke="#444444" stroke-linecap="square" d="M16.5454545,26 C11.3241818,26 7.09090909,21.7667273 7.09090909,16.5454545 C7.09090909,11.3241818 11.3241818,7.09090909 16.5454545,7.09090909 C21.7667273,7.09090909 26,11.3241818 26,16.5454545 C26,21.7667273 21.7667273,26 16.5454545,26 Z"/>
    <path stroke="#444444" d="M23.6363636,96.9090909 L9.45454545,96.9090909 L7.09090909,70.9090909 L0,68.5454545 L0,47.2727273 C0,42.0514545 4.23327273,37.8181818 9.45454545,37.8181818 L23.6363636,37.8181818 C27.0730909,37.8181818 30.082,39.6547273 31.7365455,42.3965455"/>
    <path stroke="#444444" stroke-linecap="square" d="M87.4545455,26 C92.6758182,26 96.9090909,21.7667273 96.9090909,16.5454545 C96.9090909,11.3241818 92.6758182,7.09090909 87.4545455,7.09090909 C82.2332727,7.09090909 78,11.3241818 78,16.5454545 C78,21.7667273 82.2332727,26 87.4545455,26 Z"/>
    <path stroke="#444444" d="M80.3636364,96.9090909 L94.5454545,96.9090909 L96.9090909,70.9090909 L104,68.5454545 L104,47.2727273 C104,42.0514545 99.7667273,37.8181818 94.5454545,37.8181818 L80.3636364,37.8181818 C76.9269091,37.8181818 73.918,39.6547273 72.2634545,42.3965455"/>
    <path stroke="#97BD3D" stroke-linecap="square" d="M52 28.3636364C44.1669091 28.3636364 37.8181818 22.0149091 37.8181818 14.1818182 37.8181818 6.34872727 44.1669091 0 52 0 59.8330909 0 66.1818182 6.34872727 66.1818182 14.1818182 66.1818182 22.0149091 59.8330909 28.3636364 52 28.3636364zM63.8181818 104L40.1818182 104 37.8181818 75.6363636 28.3636364 73.2727273 28.3636364 49.6363636C28.3636364 44.4150909 32.5969091 40.1818182 37.8181818 40.1818182L66.1818182 40.1818182C71.4030909 40.1818182 75.6363636 44.4150909 75.6363636 49.6363636L75.6363636 73.2727273 66.1818182 75.6363636 63.8181818 104z"/>
  </g>
</svg>
